packages/bezier-icons/icons/link-off.svg

<svg width="24" height="24" viewBox="0 0 24 24" fill="none" xmlns="http://www.w3.org/2000/svg">
<path d="M13.9626 14.111C14.3531 14.5015 14.9861 14.5015 15.3766 14.111L18.6176 10.87C20.6716 8.816 20.6716 5.474 18.6176 3.42C16.5636 1.365 13.2206 1.364 11.1666 3.42L9.5459 5.04C9.1553 5.43044 9.15523 6.06362 9.54575 6.45415C9.93616 6.84456 10.5691 6.84462 10.9596 6.4543L12.5806 4.834C13.8156 3.599 15.9666 3.599 17.2036 4.834C17.8206 5.451 18.1606 6.272 18.1606 7.145C18.1606 8.018 17.8206 8.839 17.2036 9.456L13.9626 12.697C13.5721 13.0875 13.5721 13.7205 13.9626 14.111Z" fill="#313234"/>
<path d="M5.30301 20.5802C6.33001 21.6082 7.67901 22.1212 9.02901 22.1212C10.378 22.1212 11.727 21.6082 12.754 20.5802L14.3747 18.9602C14.7653 18.5698 14.7654 17.9366 14.3749 17.546C13.9845 17.1556 13.3515 17.1556 12.961 17.5459L11.34 19.1662C10.104 20.4002 7.95201 20.4002 6.71701 19.1662C6.10001 18.5492 5.76001 17.7282 5.76001 16.8552C5.76001 15.9822 6.10001 15.1622 6.71701 14.5442L9.95801 11.3032C10.3485 10.9127 10.3485 10.2797 9.95801 9.8892C9.56755 9.49873 8.93448 9.49873 8.54401 9.8892L5.30301 13.1302C3.24901 15.1842 3.24901 18.5262 5.30301 20.5802Z" fill="#313234"/>
<path d="M18 15C18 15.5523 18.4477 16 19 16H21C21.5523 16 22 15.5523 22 15C22 14.4477 21.5523 14 21 14H19C18.4477 14 18 14.4477 18 15Z" fill="#313234"/>
<path d="M18.7072 21.1212C19.0977 21.5117 19.7307 21.5117 20.1212 21.1212C20.5117 20.7307 20.5117 20.0977 20.1212 19.7072L18.7072 18.2932C18.3167 17.9027 17.6837 17.9027 17.2932 18.2932C16.9027 18.6837 16.9027 19.3167 17.2932 19.7072L18.7072 21.1212Z" fill="#313234"/>
<path d="M6.70708 5.70732C6.31666 6.09774 5.68369 6.09779 5.2932 5.70745L3.87845 4.2932C3.48787 3.90275 3.48781 3.26958 3.87833 2.87907C4.26875 2.48865 4.90172 2.4886 5.2922 2.87895L6.70695 4.2932C7.09754 4.68364 7.09759 5.31681 6.70708 5.70732Z" fill="#313234"/>
<path d="M3 10C2.44772 10 2 9.55228 2 9C2 8.44772 2.44772 8 3 8H5C5.55228 8 6 8.44772 6 9C6 9.55228 5.55228 10 5 10H3Z" fill="#313234"/>
</svg>

<svg xmlns="http://www.w3.org/2000/svg" width="24" height="24" fill="none" viewBox="0 0 24 24"><path fill="#313234" d="M13.963 14.111a1 1 0 0 0 1.414 0l3.24-3.241a5.274 5.274 0 0 0 0-7.45 5.27 5.27 0 0 0-7.45 0L9.546 5.04a1 1 0 0 0 1.414 1.414l1.62-1.62c1.236-1.235 3.387-1.235 4.624 0 .617.617.957 1.438.957 2.311s-.34 1.694-.957 2.311l-3.241 3.241a1 1 0 0 0 0 1.414M5.303 20.58a5.25 5.25 0 0 0 3.726 1.541 5.25 5.25 0 0 0 3.725-1.54l1.62-1.62a1 1 0 0 0-1.413-1.415l-1.621 1.62c-1.236 1.234-3.388 1.234-4.623 0a3.25 3.25 0 0 1-.957-2.31c0-.874.34-1.694.957-2.312l3.241-3.24a1 1 0 1 0-1.414-1.415L5.303 13.13a5.274 5.274 0 0 0 0 7.45M18 15a1 1 0 0 0 1 1h2a1 1 0 1 0 0-2h-2a1 1 0 0 0-1 1M18.707 21.121a1 1 0 1 0 1.414-1.414l-1.414-1.414a1 1 0 1 0-1.414 1.414zM6.707 5.707a1 1 0 0 1-1.414 0L3.878 4.293A1 1 0 0 1 5.292 2.88l1.415 1.414a1 1 0 0 1 0 1.414M3 10a1 1 0 0 1 0-2h2a1 1 0 0 1 0 2z"/></svg>
